X: 1
T: O'Farrell's Welcome To Limerick
T: An Phis Fhliuch
M: 9/8
L: 1/8
K: Dmaj
|:"D"FGA AFA "C"=c2 A|"G"BAG !roll!F3 F "D"GED|FGA AFA d2A|"G"dfe dcA "D"GED:|]
|:"D"dcd ege "C"=c2 A|"D"dcd faf "G"!roll!g3|"D"afa ged "C"=c2 A|"G"BAG !roll!F3 F "D"!GED:|]
|:"D"FGA AFd AFd|AFd AFd "G"GED|"D"FGA AFA "C"=c2 A|"G"BAG !roll!F3 F "D"!GED:|]
|:"D"!roll!D3 !roll!D3 "C"=c3|=c2 B cAG  GED|"D"!roll!D3 !roll!D3 d2 A|"G"dfe dcA"D" GED:|]
|:"D"dcd ege"C" =c2 A|"D"dcd faf "G"!roll!g3|"D"afa ged "C"=c2  A|"G"BAG !roll!F3 F "D"!GED:|]

